X: 39879
T: This Is My Love, Do You Like Her?
R: jig
M: 6/8
K: Edorian
|:EGE EDE|G3 A3|BdB BAB|d3 e2d|
B2B GAB|AFD D2E|F2A AGF|E3 E3:|
|:e2e edB|e3 f2e|d2B BAB|d3 e2d|
B2B GAB|AFE D2E|G2E FED|E3 E3:|

